X: 361
T: Irvin Stiple
R: reel
B: Robert Bremner "A Collection of Scots Reels or Country Dances" 1757 p.36 #1
S: http://imslp.org/wiki/A_Collection_of_Scots_Reels_or_Country_Dances_(Bremner,_Robert)
Z: 2013 John Chambers <jc:trillian.mit.edu>
N: The 2nd strain has initial repeat but no final repeat; not fixed.
N: Fixed the incorrect lengths of the bass voice's last notes in each strain.
M: C
L: 1/8
K: Dmix
% - - - - - - - - - - - - - - - - - - - - - - - - -
V: 1
f |\
d/d/d (.d.A) F>GAc | BGcG ECGE |\
Dd-dA F>GA(g | f)de^c dD-D :|\
|: f |\
defg a>baf | gecg ecge |
defg a>ba(g | f)de^c dDDf |\
defg a>baf | (g/a/g) (.c.g) ecge |\
fdge afb(g | f)de^c dD-D |]
% - - - - - - - - - - - - - - - - - - - - - - - - -
V: 2 clef=bass middle=d
z |\
d2d2 D2D2 | G2G2 c2c2 |\
d2d2 d2d2 | A2A2 D2D :|\
|: z |\
d2d2 d2d2 | c2c2 c2c2 |
d2d2 d2d2 | A2A2 D2D2 |\
d2d2 d2d2 | c2c2 c2c2 |\
d2e2 f2g2 | a2a2 d2d |]
% - - - - - - - - - - - - - - - - - - - - - - - - -

%%sep 1 1 500
%%sep 1 1 500
